X:1
T: The Banks of Don
C:Alexander Walker
R:Strathspey
Q:128
K:E
M:4/4
L:1/16
|:F2|B3c B3G B3c e3g|f3e g3e c4-c2A2|B3c B3G B3c e3g|BG3 F3G E6F2|
B3c B3G B3c e3g|f3e g3e c4-c2A2|B3c B3G B3c e3g|BG3 F3G E6g2|
b3g e3f c3e B3G|A3f G3e F4-F3g|b3g e3f c3e B3G|A3c B3G E4-E3g|
b3g e3f c3e B3G|A3f G3e F3B, D3B,|E3G F3A G3B A3c|Be3 g3f e6:|
